static/img/article-icons/nginx.svg

<?xml version="1.0" standalone="no"?><!-- Generator: Gravit.io --><svg xmlns="http://www.w3.org/2000/svg" xmlns:xlink="http://www.w3.org/1999/xlink" style="isolation:isolate" viewBox="315.231 11.423 55.769 64" width="55.769px" height="64px"><path d=" M 315.231 43.469 C 315.231 38.378 315.231 33.286 315.231 28.195 C 315.231 27.603 315.468 27.188 316.001 26.892 C 324.822 21.801 333.584 16.769 342.346 11.677 C 342.82 11.381 343.352 11.322 343.826 11.618 C 352.647 16.709 361.468 21.801 370.29 26.892 C 370.763 27.188 371 27.603 371 28.195 C 371 38.378 371 48.501 371 58.684 C 371 59.276 370.763 59.69 370.29 59.986 C 362.712 64.367 355.134 68.748 347.556 73.129 C 346.372 73.84 345.129 74.55 343.945 75.201 C 343.412 75.497 342.879 75.497 342.346 75.201 C 335.715 71.412 329.144 67.564 322.513 63.775 C 320.323 62.532 318.132 61.23 315.942 59.986 C 315.468 59.69 315.231 59.335 315.231 58.743 C 315.231 53.652 315.231 48.56 315.231 43.469 L 315.231 43.469 Z  M 333.88 37.785 C 333.88 37.845 333.88 37.963 333.88 38.022 C 333.88 43.883 333.88 49.744 333.88 55.605 C 333.88 57.618 332.282 59.394 330.15 59.335 C 328.848 59.276 327.841 58.743 327.131 57.618 C 326.776 57.085 326.657 56.493 326.657 55.842 C 326.657 47.613 326.657 39.325 326.657 31.096 C 326.657 29.438 327.664 28.254 328.966 27.721 C 330.269 27.188 331.571 27.307 332.874 27.721 C 334.117 28.076 335.064 28.846 335.893 29.793 C 338.439 32.872 341.044 35.95 343.589 39.029 C 346.253 42.226 348.977 45.423 351.641 48.679 C 351.7 48.738 351.759 48.856 351.878 48.975 C 351.878 48.856 351.878 48.738 351.878 48.679 C 351.878 42.758 351.878 36.897 351.878 30.977 C 351.878 29.083 353.18 27.603 355.015 27.425 C 357.324 27.129 358.864 28.787 359.1 30.504 C 359.1 30.681 359.1 30.859 359.1 30.977 C 359.1 37.549 359.1 44.12 359.1 50.692 C 359.1 52.349 359.1 54.066 359.1 55.724 C 359.1 57.145 358.449 58.151 357.265 58.802 C 356.377 59.276 355.43 59.394 354.423 59.335 C 352.943 59.217 351.641 58.684 350.516 57.677 C 349.924 57.145 349.51 56.493 348.977 55.901 C 346.076 52.408 343.175 48.975 340.274 45.482 C 338.202 42.995 336.071 40.45 333.999 37.963 C 333.999 37.904 333.939 37.845 333.88 37.785 Z " fill-rule="evenodd" fill="rgb(22,200,22)"/></svg>

<svg xmlns="http://www.w3.org/2000/svg" style="isolation:isolate" viewBox="315.2 11.4 55.8 64" width="55.8" height="64"><path d="M315.2 43.5V28.2c0-.6.3-1 .8-1.3l26.3-15.2c.5-.3 1-.4 1.5 0l26.5 15.2c.5.3.7.7.7 1.3v30.5c0 .6-.2 1-.7 1.3L347.6 73a111 111 0 0 1-3.7 2.1c-.5.3-1 .3-1.6 0l-19.8-11.4L316 60c-.4-.3-.7-.7-.7-1.3V43.5zm18.7-5.7v17.8c0 2-1.6 3.8-3.8 3.7-1.3 0-2.3-.6-3-1.7a3 3 0 0 1-.4-1.8V31.1c0-1.7 1-2.8 2.3-3.4 1.3-.5 2.6-.4 3.9 0 1.2.4 2.2 1.1 3 2 2.5 3.2 5.1 6.3 7.7 9.3l8 9.7.3.3v-.3V31c0-2 1.3-3.4 3.1-3.6a3.6 3.6 0 0 1 4.1 3.1v25.2c0 1.4-.7 2.5-1.8 3.1-1 .5-1.9.6-2.9.5a6.5 6.5 0 0 1-3.9-1.6l-1.5-1.8-8.7-10.4L334 38l-.1-.2z" fill-rule="evenodd" fill="#16C816"/></svg>
